dist/img/icon-github.svg

<?xml version="1.0" encoding="UTF-8" standalone="no"?>
<svg width="23px" height="22px" viewBox="0 0 23 22" version="1.1" xmlns="http://www.w3.org/2000/svg" xmlns:xlink="http://www.w3.org/1999/xlink" xmlns:sketch="http://www.bohemiancoding.com/sketch/ns">
    <!-- Generator: Sketch 3.2.2 (9983) - http://www.bohemiancoding.com/sketch -->
    <title>icon-github</title>
    <desc>Created with Sketch.</desc>
    <defs></defs>
    <g id="Page-1" stroke="none" stroke-width="1" fill="none" fill-rule="evenodd" sketch:type="MSPage">
        <g id="Desktop" sketch:type="MSArtboardGroup" transform="translate(-699.000000, -382.000000)" fill="#000000">
            <g id="icon-github" sketch:type="MSLayerGroup" transform="translate(699.000000, 382.000000)">
                <path d="M2.89,17.7414211 C4.22957895,19.6015789 5.99136842,20.8914211 8.12452632,21.5866316 C8.37321053,21.6363684 8.54673684,21.6109474 8.67052632,21.4871579 C8.79431579,21.3876842 8.84405263,21.2395789 8.84405263,21.0903684 L8.84405263,20.3454211 L8.84405263,19.1053158 L8.52131579,19.1550526 C8.32347368,19.2047895 8.07478947,19.2047895 7.75315789,19.2047895 C7.45473684,19.2047895 7.132,19.1804737 6.78494737,19.1053158 C6.46221053,19.0555789 6.14057895,18.9074737 5.86757895,18.6842105 C5.56915789,18.4852632 5.37131579,18.1879474 5.24752632,17.8397895 L5.12263158,17.5181579 C5.02426316,17.3192105 4.87505263,17.0716316 4.67610526,16.8229474 C4.47826316,16.5499474 4.27931579,16.3764211 4.08147368,16.3023684 L3.982,16.2283158 C3.90794737,16.1785789 3.85821053,16.1288421 3.80847368,16.0536842 C3.75873684,16.0050526 3.709,15.9298947 3.68357895,15.8558421 C3.65926316,15.8061053 3.68357895,15.7563684 3.75873684,15.7066316 C3.80847368,15.6568947 3.95657895,15.6325789 4.15552632,15.6325789 L4.42852632,15.6823158 C4.60205263,15.7320526 4.84963158,15.8304211 5.09831579,16.0050526 C5.37131579,16.2028947 5.59457895,16.4515789 5.79242105,16.7234737 C5.99136842,17.1213684 6.23894737,17.3932632 6.56168421,17.5922105 C6.86010526,17.7911579 7.15742105,17.8895263 7.45473684,17.8895263 C7.75315789,17.8895263 8.02505263,17.8652105 8.24942105,17.8397895 C8.47157895,17.7911579 8.67052632,17.716 8.86947368,17.6165263 C8.94352632,16.9964737 9.16678947,16.5256316 9.53926316,16.2028947 C9.01757895,16.1288421 8.54673684,16.0536842 8.12452632,15.9553158 C7.70342105,15.8304211 7.28121053,15.6568947 6.83468421,15.4093158 C6.38815789,15.1606316 6.01568421,14.839 5.71836842,14.4908421 C5.42105263,14.1194737 5.17236842,13.6232105 4.97452632,13.0274737 C4.801,12.4317368 4.70152632,11.7376316 4.70152632,10.9440526 C4.70152632,9.82773684 5.074,8.88494737 5.79242105,8.09026316 C5.44536842,7.24694737 5.49510526,6.30415789 5.89189474,5.263 C6.16489474,5.18784211 6.56168421,5.263 7.08336842,5.46084211 C7.60394737,5.65978947 8.00073684,5.83331579 8.24942105,5.98142105 C8.47157895,6.13063158 8.67052632,6.25442105 8.81973684,6.37931579 C9.68736842,6.13063158 10.5804211,6.00684211 11.4988947,6.00684211 C12.3919474,6.00684211 13.285,6.13063158 14.1537368,6.37931579 L14.6743158,6.03115789 C15.0213684,5.80789474 15.4678947,5.61005263 15.9398421,5.43652632 C16.4361053,5.23757895 16.8074737,5.18784211 17.0561579,5.263 C17.4772632,6.30415789 17.527,7.24694737 17.1799474,8.09026316 C17.8994737,8.88494737 18.2719474,9.82773684 18.2719474,10.9440526 C18.2719474,11.7376316 18.1724737,12.4317368 17.9989474,13.0274737 C17.8,13.6475263 17.5524211,14.1194737 17.254,14.4908421 C16.9566842,14.839 16.5842105,15.1606316 16.1376842,15.4093158 C15.6911579,15.6568947 15.2446316,15.8304211 14.8235263,15.9553158 C14.4013158,16.0536842 13.9304737,16.1288421 13.4087895,16.2028947 C13.8807368,16.5996842 14.1283158,17.2694737 14.1283158,18.1625263 L14.1283158,21.0903684 C14.1283158,21.2395789 14.1780526,21.3876842 14.3018421,21.4871579 C14.4267368,21.6109474 14.6002632,21.6363684 14.8478421,21.5866316 C16.981,20.8914211 18.7427895,19.6015789 20.0823684,17.7414211 C21.4473684,15.9055789 22.1171579,13.8210526 22.1171579,11.5143684 C22.1171579,9.57905263 21.6452105,7.79294737 20.7024211,6.15605263 C19.7353158,4.54347368 18.4454737,3.25252632 16.8328947,2.28542105 C15.1948947,1.34263158 13.4087895,0.871789474 11.4988947,0.871789474 C9.56357895,0.871789474 7.77747368,1.34263158 6.14057895,2.28542105 C4.528,3.25252632 3.23815789,4.54347368 2.26994737,6.15605263 C1.32715789,7.79294737 0.856315789,9.57905263 0.856315789,11.5143684 C0.856315789,13.8210526 1.52610526,15.9055789 2.89,17.7414211" id="Fill-172" sketch:type="MSShapeGroup"></path>
            </g>
        </g>
    </g>
</svg>

<svg width="23" height="22" viewBox="0 0 23 22" xmlns="http://www.w3.org/2000/svg"><title>icon-github</title><path d="M2.89 17.74c1.34 1.862 3.1 3.15 5.235 3.847.248.05.422.024.546-.1.124-.1.174-.247.174-.397V19.105l-.323.05c-.197.05-.445.05-.767.05-.298 0-.62-.025-.968-.1-.323-.05-.644-.198-.917-.42-.3-.2-.497-.497-.62-.845l-.125-.322c-.1-.2-.248-.446-.447-.695-.198-.273-.397-.447-.595-.52l-.098-.075c-.074-.05-.124-.1-.174-.174-.05-.05-.1-.124-.124-.198-.025-.05 0-.1.075-.15.048-.05.197-.073.396-.073l.273.05c.172.05.42.147.668.322.273.198.497.447.694.718.2.398.447.67.77.87.298.198.595.297.893.297.298 0 .57-.025.794-.05.222-.05.42-.124.62-.223.074-.62.297-1.09.67-1.414-.522-.074-.993-.15-1.415-.248-.422-.125-.844-.298-1.29-.546-.447-.25-.82-.57-1.117-.92-.297-.37-.546-.867-.743-1.463-.174-.595-.273-1.29-.273-2.083 0-1.116.372-2.06 1.09-2.854-.347-.843-.297-1.786.1-2.827.273-.075.67 0 1.19.198.522.2.92.373 1.167.52.222.15.42.274.57.4.867-.25 1.76-.373 2.68-.373.892 0 1.785.124 2.654.372l.52-.35c.347-.222.794-.42 1.266-.593.496-.2.867-.25 1.116-.174.42 1.04.47 1.984.124 2.827.72.795 1.092 1.738 1.092 2.854 0 .794-.1 1.488-.273 2.083-.2.62-.448 1.092-.746 1.464-.297.35-.67.67-1.116.92-.447.247-.893.42-1.314.545-.423.1-.894.174-1.415.248.47.397.718 1.066.718 1.96v2.927c0 .15.05.298.174.397.125.124.298.15.546.1 2.133-.696 3.895-1.985 5.234-3.846 1.365-1.834 2.035-3.92 2.035-6.226 0-1.935-.472-3.72-1.415-5.358-.967-1.613-2.257-2.903-3.87-3.87C15.196 1.342 13.41.87 11.5.87c-1.936 0-3.723.47-5.36 1.413-1.612.968-2.902 2.258-3.87 3.87C1.327 7.794.856 9.58.856 11.516c0 2.306.67 4.39 2.034 6.226" fill="#000" fill-rule="evenodd"/></svg>
